X:129
T:Graf Spey
Z: id:dc-reel-119
M:C
L:1/8
K:C Major
EDCD EGG2|AGcG AGcG|EDCD EGG2|AGcG EDD2:|!
efed cBcA|GEE2 GAcd|eged cBcA|GEcE EDD2|!
eccB cAGE|GEE2 GAcd|eaag eged|cAGE EDD2|]!
egg^f g4|eaa^g a3=g|eged c3d|egag eddf:|!
eccB cAGE|G2Ac cAGE|GAcd ecdc|AGcE EDD2:|!
egcg egcg|^fada fada|egcg egcg|ABcd edd2|!
g2a^f ge=fd|ecdB cAGE|GAcd ecdc|AGcE EDD2|]!

